Simply-Blue-Circles/scalable/apps/nmap.svg

<svg xmlns="http://www.w3.org/2000/svg" xmlns:xlink="http://www.w3.org/1999/xlink" width="48" height="48" viewBox="0 0 12.7 12.7"><defs><linearGradient id="a"><stop offset="0" stop-color="#2c89a0"/><stop offset="1" stop-color="#2c89a0" stop-opacity="0"/></linearGradient><linearGradient xlink:href="#a" id="b" x1="1.487" y1="7.149" x2="5.062" y2="4.123" gradientUnits="userSpaceOnUse" gradientTransform="rotate(-163.367 6.336 6.31)"/></defs><path d="M6.336 6.31L4.68 11.88c4.09.607 5.934-1.503 7.405-3.853z" fill="url(#b)" stroke-width=".29"/><path d="M6.34.07a6.29 6.29 0 0 0-6.29 6.3 6.29 6.29 0 0 0 6.3 6.28 6.29 6.29 0 0 0 6.28-6.29A6.29 6.29 0 0 0 6.34.07zM6.32 1l.01.01a5.4 5.4 0 0 1 5.4 5.4 5.4 5.4 0 0 1-5.4 5.41 5.4 5.4 0 0 1-5.41-5.4A5.4 5.4 0 0 1 6.32 1zm.028 1.044a.306.306 0 0 0-.305.305v.669a3.342 3.342 0 0 0-3.025 3.028h-.669a.302.302 0 0 0-.305.306c0 .168.141.305.305.305h.669a3.342 3.342 0 0 0 3.028 3.025v.669c0 .164.134.305.306.305a.306.306 0 0 0 .305-.305v-.669a3.342 3.342 0 0 0 3.025-3.025h.669a.306.306 0 0 0 .305-.305.306.306 0 0 0-.305-.306h-.669a3.342 3.342 0 0 0-3.028-3.024v-.673a.306.306 0 0 0-.306-.305zm-.302 1.585v1.226c0 .164.134.305.306.305a.306.306 0 0 0 .305-.305V3.633a2.735 2.735 0 0 1 2.414 2.413H7.845a.306.306 0 0 0-.305.306c0 .164.133.305.305.305h1.226a2.735 2.735 0 0 1-2.414 2.414V7.85a.306.306 0 0 0-.305-.305.306.306 0 0 0-.306.305v1.222A2.735 2.735 0 0 1 3.63 6.657h1.226a.306.306 0 0 0 .305-.305.31.31 0 0 0-.305-.306H3.629A2.735 2.735 0 0 1 6.046 3.63z" stroke-width="3.78" fill="#2c89a0"/></svg>

<?xml version="1.0" encoding="UTF-8" standalone="no"?>
<svg
   xmlns:dc="http://purl.org/dc/elements/1.1/"
   xmlns:cc="http://creativecommons.org/ns#"
   xmlns:rdf="http://www.w3.org/1999/02/22-rdf-syntax-ns#"
   xmlns:svg="http://www.w3.org/2000/svg"
   xmlns="http://www.w3.org/2000/svg"
   xmlns:xlink="http://www.w3.org/1999/xlink"
   xmlns:sodipodi="http://sodipodi.sourceforge.net/DTD/sodipodi-0.dtd"
   xmlns:inkscape="http://www.inkscape.org/namespaces/inkscape"
   width="48"
   height="48"
   viewBox="0 0 12.7 12.7"
   version="1.1"
   id="svg14"
   sodipodi:docname="nmap.svg"
   inkscape:version="0.92.4 (5da689c313, 2019-01-14)">
  <metadata
     id="metadata18">
    <rdf:RDF>
      <cc:Work
         rdf:about="">
        <dc:format>image/svg+xml</dc:format>
        <dc:type
           rdf:resource="http://purl.org/dc/dcmitype/StillImage" />
        <dc:title></dc:title>
      </cc:Work>
    </rdf:RDF>
  </metadata>
  <sodipodi:namedview
     pagecolor="#ffffff"
     bordercolor="#666666"
     borderopacity="1"
     objecttolerance="10"
     gridtolerance="10"
     guidetolerance="10"
     inkscape:pageopacity="0"
     inkscape:pageshadow="2"
     inkscape:window-width="1087"
     inkscape:window-height="480"
     id="namedview16"
     showgrid="false"
     inkscape:zoom="4.9166667"
     inkscape:cx="2.1355932"
     inkscape:cy="24"
     inkscape:window-x="0"
     inkscape:window-y="25"
     inkscape:window-maximized="0"
     inkscape:current-layer="svg14" />
  <defs
     id="defs8">
    <linearGradient
       id="a">
      <stop
         offset="0"
         stop-color="#2c89a0"
         id="stop2" />
      <stop
         offset="1"
         stop-color="#2c89a0"
         stop-opacity="0"
         id="stop4" />
    </linearGradient>
    <linearGradient
       xlink:href="#a"
       id="b"
       x1="1.487"
       y1="7.149"
       x2="5.062"
       y2="4.123"
       gradientUnits="userSpaceOnUse"
       gradientTransform="rotate(-163.367,6.336,6.31)" />
  </defs>
  <path
     d="M 6.336,6.31 4.68,11.88 c 4.09,0.607 5.934,-1.503 7.405,-3.853 z"
     id="path10"
     style="fill:url(#b);stroke-width:0.28999999"
     inkscape:connector-curvature="0" />
  <path
     d="M 6.34,0.07 A 6.29,6.29 0 0 0 0.05,6.37 6.29,6.29 0 0 0 6.35,12.65 6.29,6.29 0 0 0 12.63,6.36 6.29,6.29 0 0 0 6.34,0.07 Z M 6.32,1 6.33,1.01 a 5.4,5.4 0 0 1 5.4,5.4 5.4,5.4 0 0 1 -5.4,5.41 A 5.4,5.4 0 0 1 0.92,6.42 5.4,5.4 0 0 1 6.32,1 Z M 6.348,2.044 A 0.306,0.306 0 0 0 6.043,2.349 V 3.018 A 3.342,3.342 0 0 0 3.018,6.046 H 2.349 A 0.302,0.302 0 0 0 2.044,6.352 c 0,0.168 0.141,0.305 0.305,0.305 h 0.669 a 3.342,3.342 0 0 0 3.028,3.025 v 0.669 c 0,0.164 0.134,0.305 0.306,0.305 A 0.306,0.306 0 0 0 6.657,10.351 V 9.682 A 3.342,3.342 0 0 0 9.682,6.657 h 0.669 A 0.306,0.306 0 0 0 10.656,6.352 0.306,0.306 0 0 0 10.351,6.046 H 9.682 A 3.342,3.342 0 0 0 6.654,3.022 V 2.349 A 0.306,0.306 0 0 0 6.348,2.044 Z M 6.046,3.629 v 1.226 c 0,0.164 0.134,0.305 0.306,0.305 A 0.306,0.306 0 0 0 6.657,4.855 V 3.633 A 2.735,2.735 0 0 1 9.071,6.046 H 7.845 A 0.306,0.306 0 0 0 7.54,6.352 c 0,0.164 0.133,0.305 0.305,0.305 H 9.071 A 2.735,2.735 0 0 1 6.657,9.071 V 7.85 A 0.306,0.306 0 0 0 6.352,7.545 0.306,0.306 0 0 0 6.046,7.85 V 9.072 A 2.735,2.735 0 0 1 3.63,6.657 H 4.856 A 0.306,0.306 0 0 0 5.161,6.352 0.31,0.31 0 0 0 4.856,6.046 H 3.629 A 2.735,2.735 0 0 1 6.046,3.63 Z"
     id="path12"
     inkscape:connector-curvature="0"
     style="fill:#2c89a0;stroke-width:3.77999997" />
</svg>
